X: 23242
T: Leatherbags O'Donnell
R: waltz
M: 3/4
K: Gminor
G2 c2 c2|G2 c2 c2|G2 c2 c2|B2 G2 GF|
G2 c2 c2|G2 c2 c2|(GB) F2 GF|E2 C2 C2|
G2 c2 c2|G2 c2 c2|G2 B2 (cd)|e2 d2 c2|d2 B2 c2|
GB F2 (GF)|(E3F) GE|(D2C2) C2|E4 F2|G4 FG|
E3 F GE|(D2C2) C2|E4 F2|G3 B (FG)|E3 F (GE)|
(D2 B,2) B,2|E4 F2|(G3A) GF|G2 B2 (cd)|e2 d2 c2|
d2 B2 c2|(GB) F2 (GF)|E2 (EF) (GE)|(D2C2) C2||

